X:70
T:Dublin Lasses, The
T:Boys of Ballysodare, The
T:Boys of Ballysadare, The
R:reel
H:Also played in F, see #736, #978
Z:id:hn-reel-70
M:C|
K:G
dG~G2 dGeG|dGGA BAAB|1 dG~G2 dedB|AcBA GED2:|2 GABd e2dB|AcBA GED2||
~g3a bgaf|gfga bgef|~g3a bgaf|gfed Bdef|
~g3a bgaf|gfga bgeg|bgaf gedB|AcBA GED2||
|:Bd~d2 Bdgd|Bdgd BA~A2|1 Bd~d2 eBdB|AcBA GED2:|2 eB~B2 gB~B2|AcBA GED2||
<end>
<start>
